X:2
T:Greensleeves Divisions
T:Treble Upon a Ground
C:Anonymous (Folger Lib. MS 1610)
L:1/4
M:C
K:Bb bass
V:c name=Cello
%%pageheight 11 in
%%staffwidth 6.5 in
%%indent 0.5 in
%%leftmargin .75 in
%
%System 1
[V:1]   "A"[|]d'>e'd'd'|c'af g/a/|b>ag a/g/| a^fd2|d'>e'd'd'|\
                c'af g/a/|
%System 2
        b a/g/ ^f/g/a/f/|g/g/ d'=bg "B"||d'/d'/d'/d'/ f'd'|\
                a/a/a/a/ c'a|g/g/g/g/ bg|a/a/ a^fd|
%System 3
        d'/d'/ f'd'b|a/a/ c'af|g/a/b/g/ aa|=bgg2 "C"||B/A/B/c/ d/c/d/=e/|
%System 4
        f/=e/f/g/ a/g/a/f/|g/f/g/a/ g/b/a/g/|^f/=e/f/g/ fd|f/e/d/f/ \
                e/d/c/e/|
%System 5
        d/c/d/=e/ f/g/a/d/|=e/^f/g/=e/ f/g/a/f/|gGg2 "D"||f'2d'b|c'af2|\
                b>a g a/g/|
%System 6
        a^fd d'/e'/|f'd'b a/b/|c'af g/a/|b a/g/ ^f/g/a/f/|g/a/=b/c'/ bg||
%System 7
        "E"[|]B>c d>=e|f>g a>f|g>b a>g|^f3d|f>e d>f|g/a/ bad|
%System 8
        =e/^f/ g f/g/ a|gGg2|]
%
%
